img/sulpak_logo.svg

<svg width="230" height="98" viewBox="0 0 230 98" fill="none" xmlns="http://www.w3.org/2000/svg">
<path fill-rule="evenodd" clip-rule="evenodd" d="M51.0917 80.1665C42.7945 80.1665 34.8372 76.8705 28.9702 71.0035C23.1032 65.1365 19.8071 57.1792 19.8071 48.882C19.8071 40.5849 23.1032 32.6275 28.9702 26.7606C34.8372 20.8936 42.7945 17.5975 51.0917 17.5975H178.909C187.206 17.5975 195.163 20.8936 201.03 26.7606C206.897 32.6275 210.193 40.5849 210.193 48.882C210.193 57.1792 206.897 65.1365 201.03 71.0035C195.163 76.8705 187.206 80.1665 178.909 80.1665H51.0917Z" fill="#C10E1A"/>
<path d="M178.909 81.9263H51.0917C42.3019 81.9263 33.8721 78.4345 27.6568 72.2192C21.4414 66.0039 17.9497 57.5741 17.9497 48.7842C17.9497 39.9944 21.4414 31.5646 27.6568 25.3493C33.8721 19.134 42.3019 15.6422 51.0917 15.6422H178.909C187.551 15.8522 195.769 19.4331 201.808 25.62C207.846 31.807 211.226 40.1096 211.226 48.7549C211.226 57.4002 207.846 65.7028 201.808 71.8898C195.769 78.0767 187.551 81.6576 178.909 81.8676V81.9263ZM51.0917 19.3572C47.1544 19.2559 43.2367 19.9438 39.5695 21.3805C35.9023 22.8172 32.5598 24.9736 29.7392 27.7225C26.9186 30.4715 24.6769 33.7573 23.1462 37.3863C21.6156 41.0153 20.827 44.9141 20.827 48.8527C20.827 52.7913 21.6156 56.69 23.1462 60.319C24.6769 63.9481 26.9186 67.2339 29.7392 69.9828C32.5598 72.7318 35.9023 74.8881 39.5695 76.3249C43.2367 77.7616 47.1544 78.4495 51.0917 78.3481H178.909C186.6 78.1501 193.909 74.9556 199.279 69.4458C204.649 63.9359 207.654 56.5464 207.654 48.8527C207.654 41.1589 204.649 33.7695 199.279 28.2596C193.909 22.7497 186.6 19.5553 178.909 19.3572H51.0917Z" fill="white"/>
<path fill-rule="evenodd" clip-rule="evenodd" d="M34.3546 53.2619H45.3237C45.4871 54.3517 46.0606 55.3379 46.9271 56.0188C48.0003 56.654 49.2416 56.9473 50.4857 56.8596C51.5643 56.9107 52.6371 56.6745 53.5946 56.1753C53.9494 55.9903 54.2445 55.7083 54.4452 55.3621C54.646 55.016 54.7443 54.6199 54.7286 54.22C54.7286 52.9165 53.1449 51.8802 49.9773 51.1111L48.5695 50.8373C45.969 50.1725 43.9159 49.5664 42.3712 48.9994C41.2299 48.6131 40.1347 48.1016 39.1059 47.4743C37.8231 46.5747 36.7821 45.3725 36.0752 43.9743C35.3735 42.5321 35.025 40.9437 35.0585 39.3403C34.996 37.757 35.3193 36.1823 36.0006 34.7517C36.6818 33.3211 37.7005 32.0776 38.969 31.1281C42.1504 28.9779 45.9477 27.9273 49.7818 28.1365C53.5532 27.9309 57.2922 28.9307 60.4576 30.9912C61.723 31.9497 62.7649 33.1718 63.5111 34.573C64.2572 35.9741 64.6898 37.5207 64.7788 39.1056H54.0834C54.0281 38.6471 53.8778 38.2051 53.6421 37.8078C53.4065 37.4106 53.0906 37.0668 52.7147 36.7984C51.7643 36.2183 50.6583 35.9452 49.5471 36.0163C48.6075 35.9463 47.6683 36.1573 46.8488 36.6224C46.5505 36.8167 46.3109 37.0888 46.1559 37.4092C46.0008 37.7297 45.9362 38.0864 45.969 38.4408C45.969 39.5945 47.5136 40.5721 50.5834 41.3542L51.2091 41.5106L53.1644 42.019C55.9842 42.6097 58.7039 43.6041 61.2397 44.9715C62.6545 45.8512 63.83 47.0669 64.6615 48.5105C65.4023 49.9548 65.7719 51.5608 65.7369 53.1837C65.8282 54.8933 65.5063 56.5997 64.7983 58.1585C64.0904 59.7174 63.0173 61.0827 61.6699 62.1389C58.2145 64.4539 54.0875 65.5545 49.9382 65.2673C46.004 65.4843 42.1097 64.3834 38.8713 62.1389C37.5113 61.0906 36.3958 59.7588 35.6023 58.2359C34.8088 56.7131 34.3563 55.0358 34.2764 53.3205L34.3546 53.2619ZM94.4209 38.2649V64.231H84.9964V60.3205C83.9249 61.7412 82.5485 62.9038 80.9686 63.7226C79.3978 64.4848 77.6696 64.8666 75.9239 64.8372C74.4766 64.8564 73.0402 64.5837 71.7005 64.0355C70.4754 63.5312 69.394 62.7319 68.5525 61.7087C67.7631 60.7181 67.2082 59.5617 66.9296 58.3261C66.5587 56.1437 66.4081 53.9297 66.4799 51.7172V38.2649H76.7842V51.6781C76.6558 53.0867 76.9269 54.503 77.5664 55.7646C77.8868 56.1677 78.3041 56.4831 78.7794 56.6814C79.2546 56.8797 79.7723 56.9545 80.2842 56.8987C80.8374 56.9374 81.3915 56.838 81.8966 56.6093C82.4018 56.3806 82.8421 56.0299 83.178 55.5887C83.8996 54.4172 84.2411 53.0513 84.1557 51.6781V38.2649H94.4209ZM96.6108 64.231V29.0359H107.013V64.231H96.6108ZM127.895 51.3066C128.004 49.7255 127.643 48.1476 126.859 46.7703C126.507 46.2767 126.035 45.8811 125.488 45.6211C124.94 45.361 124.335 45.2451 123.731 45.2843C123.104 45.2425 122.477 45.3522 121.902 45.604C121.326 45.8559 120.82 46.2425 120.426 46.7312C119.59 48.1056 119.188 49.7002 119.273 51.3066C119.156 52.8536 119.525 54.3984 120.328 55.7255C120.694 56.2176 121.178 56.6097 121.735 56.866C122.292 57.1222 122.904 57.2344 123.516 57.192C124.125 57.2235 124.733 57.1044 125.285 56.8452C125.838 56.5861 126.318 56.1948 126.683 55.706C127.482 54.3837 127.858 52.8485 127.758 51.3066H127.895ZM109.301 74.6527V38.2649H118.432V41.5889C119.338 40.2923 120.555 39.2436 121.971 38.5386C123.496 37.8616 125.152 37.5342 126.82 37.5805C128.368 37.546 129.904 37.8685 131.308 38.5229C132.711 39.1773 133.946 40.1461 134.915 41.3542C137.097 44.2 138.205 47.7243 138.043 51.3066C138.226 54.9277 137.117 58.4961 134.915 61.3763C133.902 62.601 132.619 63.5753 131.168 64.223C129.716 64.8708 128.135 65.1747 126.546 65.1109C125.104 65.1498 123.669 64.8763 122.342 64.3092C121.135 63.7301 120.083 62.8722 119.273 61.8065V74.6527H109.301ZM156.227 52.6557C154.946 53.1267 153.64 53.5314 152.317 53.868C149.736 54.5524 148.406 55.4714 148.406 56.6054C148.389 56.9321 148.448 57.2582 148.581 57.5573C148.714 57.8563 148.915 58.1198 149.169 58.3261C149.795 58.7862 150.564 59.008 151.339 58.9518C152.013 59.0105 152.691 58.9354 153.336 58.7306C153.98 58.5259 154.577 58.1957 155.093 57.759C155.967 56.6975 156.388 55.3351 156.267 53.9658V53.1446C156.279 52.9819 156.279 52.8185 156.267 52.6557H156.227ZM157.186 64.231H167.549V63.488C167.191 63.2623 166.901 62.945 166.708 62.569C166.508 62.1757 166.407 61.7393 166.414 61.2981V46.9268C166.497 45.3979 166.244 43.8693 165.671 42.4492C165.091 41.2944 164.205 40.3206 163.11 39.6336C161.814 38.856 160.391 38.3132 158.906 38.0302C156.977 37.6287 155.011 37.4321 153.04 37.4437C149.465 37.2179 145.898 37.9896 142.736 39.6727C141.61 40.3613 140.686 41.3352 140.058 42.4957C139.429 43.6563 139.119 44.9623 139.158 46.2815H149.228C149.246 45.9037 149.345 45.5341 149.517 45.1971C149.689 44.8601 149.93 44.5633 150.225 44.3262C150.9 43.8659 151.695 43.6143 152.512 43.6028C153.478 43.5428 154.444 43.7172 155.328 44.1112C155.614 44.276 155.85 44.5164 156.008 44.8061C156.167 45.0958 156.243 45.4236 156.227 45.7536C156.227 47.0832 154.585 47.924 151.339 48.2759C150.401 48.2759 149.638 48.4519 149.091 48.5497C145.948 48.7057 142.889 49.6179 140.175 51.2088C139.36 51.9042 138.722 52.7819 138.311 53.7706C137.899 54.7593 137.728 55.831 137.809 56.8987C137.744 58.029 137.926 59.1599 138.341 60.2132C138.756 61.2664 139.395 62.217 140.214 62.9992C142.122 64.5502 144.544 65.3251 146.998 65.1696C148.749 65.1977 150.49 64.913 152.141 64.3288C153.723 63.7554 155.177 62.8786 156.423 61.7478L157.068 64.231H157.186ZM168.741 64.231V29.0359H179.046V46.2033L185.752 38.2649H197.308L187.708 47.8458L198.638 64.231H186.397L180.747 54.9434L178.967 56.7618V64.231H168.741Z" fill="white"/>
</svg>

<svg width="230" height="98" fill="none" xmlns="http://www.w3.org/2000/svg"><path fill-rule="evenodd" clip-rule="evenodd" d="M51.092 80.166a31.284 31.284 0 1 1 0-62.569h127.817a31.284 31.284 0 0 1 0 62.57H51.092Z" fill="#C10E1A"/><path d="M178.909 81.926H51.092a33.142 33.142 0 0 1 0-66.284h127.817a33.124 33.124 0 0 1 32.317 33.113 33.124 33.124 0 0 1-32.317 33.113v.058ZM51.092 19.357a29.506 29.506 0 0 0-11.523 56.968 29.505 29.505 0 0 0 11.523 2.023h127.817a29.504 29.504 0 0 0 0-58.99H51.092Z" fill="#fff"/><path fill-rule="evenodd" clip-rule="evenodd" d="M34.355 53.262h10.969a4.321 4.321 0 0 0 1.603 2.757 6.14 6.14 0 0 0 3.559.84 6.1 6.1 0 0 0 3.109-.684 2.112 2.112 0 0 0 1.134-1.955c0-1.303-1.584-2.34-4.752-3.109l-1.407-.274c-2.601-.665-4.654-1.27-6.199-1.838a16.328 16.328 0 0 1-3.265-1.525 9.523 9.523 0 0 1-3.03-3.5 10.11 10.11 0 0 1-1.017-4.634 9.775 9.775 0 0 1 3.91-8.212 17.598 17.598 0 0 1 10.813-2.991c3.771-.206 7.51.794 10.676 2.854a10.95 10.95 0 0 1 4.32 8.115H54.084a3.324 3.324 0 0 0-1.368-2.308 5.416 5.416 0 0 0-3.168-.782 4.752 4.752 0 0 0-2.698.606 1.955 1.955 0 0 0-.88 1.819c0 1.153 1.545 2.131 4.614 2.913l.626.157 1.955.508c2.82.59 5.54 1.585 8.076 2.953 1.414.88 2.59 2.095 3.422 3.538a9.778 9.778 0 0 1 1.075 4.674 10.656 10.656 0 0 1-4.067 8.955 18.751 18.751 0 0 1-11.732 3.128 17.715 17.715 0 0 1-11.067-3.128 11.83 11.83 0 0 1-4.595-8.819l.079-.058ZM94.42 38.265V64.23h-9.425v-3.91a11.908 11.908 0 0 1-4.027 3.402 11.127 11.127 0 0 1-5.045 1.114 10.775 10.775 0 0 1-4.224-.802 8.037 8.037 0 0 1-3.148-2.326 8.388 8.388 0 0 1-1.622-3.383 33.047 33.047 0 0 1-.45-6.609V38.265h10.304v13.413a7.527 7.527 0 0 0 .782 4.087 3.05 3.05 0 0 0 2.718 1.134 3.343 3.343 0 0 0 2.894-1.31 6.667 6.667 0 0 0 .978-3.91V38.264H94.42Zm2.19 25.966V29.036h10.402V64.23H96.611Zm31.284-12.924a8.051 8.051 0 0 0-1.036-4.537 3.563 3.563 0 0 0-3.128-1.486 3.91 3.91 0 0 0-3.305 1.447 7.992 7.992 0 0 0-1.153 4.576 7.45 7.45 0 0 0 1.055 4.418 3.66 3.66 0 0 0 3.188 1.467 3.712 3.712 0 0 0 3.167-1.486 7.561 7.561 0 0 0 1.075-4.4h.137Zm-18.594 23.346V38.265h9.131v3.324a9.462 9.462 0 0 1 3.539-3.05 11.183 11.183 0 0 1 4.849-.959 10.092 10.092 0 0 1 8.095 3.774 15.226 15.226 0 0 1 3.128 9.953 15.308 15.308 0 0 1-3.128 10.07 10.325 10.325 0 0 1-8.369 3.734 10.014 10.014 0 0 1-4.204-.802 8.442 8.442 0 0 1-3.069-2.502v12.846h-9.972Zm46.926-21.997a39.697 39.697 0 0 1-3.91 1.212c-2.581.684-3.911 1.603-3.911 2.737a2.076 2.076 0 0 0 .763 1.721c.626.46 1.395.682 2.17.626a5.126 5.126 0 0 0 3.754-1.193 5.241 5.241 0 0 0 1.174-3.793v-.821a3.324 3.324 0 0 0 0-.49h-.04Zm.959 11.575h10.363v-.743a2.36 2.36 0 0 1-.841-.919 2.71 2.71 0 0 1-.294-1.27V46.926a10.452 10.452 0 0 0-.743-4.478 7.07 7.07 0 0 0-2.561-2.815 12.844 12.844 0 0 0-4.204-1.604 27.977 27.977 0 0 0-5.866-.586 19.335 19.335 0 0 0-10.304 2.229 7.485 7.485 0 0 0-3.578 6.608h10.07a2.665 2.665 0 0 1 .997-1.955 4.163 4.163 0 0 1 2.287-.723 6.003 6.003 0 0 1 2.816.508 1.795 1.795 0 0 1 .899 1.643c0 1.33-1.642 2.17-4.888 2.522-.938 0-1.701.176-2.248.274a19.548 19.548 0 0 0-8.916 2.659 6.795 6.795 0 0 0-2.366 5.69 7.818 7.818 0 0 0 2.405 6.1 9.774 9.774 0 0 0 6.784 2.17 14.707 14.707 0 0 0 5.143-.84 12.925 12.925 0 0 0 4.282-2.581l.645 2.483h.118Zm11.555 0V29.036h10.305v17.167l6.706-7.938h11.556l-9.6 9.58 10.93 16.386h-12.241l-5.65-9.288-1.78 1.819v7.469h-10.226Z" fill="#fff"/></svg>
